apps/22/gnome.svg

<?xml version="1.0" encoding="UTF-8"?>
<svg id="c" width="22" height="22" version="1.1" xmlns="http://www.w3.org/2000/svg" xmlns:cc="http://creativecommons.org/ns#" xmlns:dc="http://purl.org/dc/elements/1.1/" xmlns:rdf="http://www.w3.org/1999/02/22-rdf-syntax-ns#">
	<metadata id="a">
		<rdf:RDF>
			<cc:Work rdf:about="">
				<dc:format>image/svg+xml</dc:format>
				<dc:type rdf:resource="http://purl.org/dc/dcmitype/StillImage"/>
				<dc:title/>
			</cc:Work>
		</rdf:RDF>
	</metadata>
	<defs id="e">
		<style id="current-color-scheme" type="text/css">.ColorScheme-Text {color:#090d11;}.ColorScheme-Background{color:#ffffff;}</style>
	</defs>
	<path id="b" class="ColorScheme-Text" d="m17.194 1.375c-3.9925 0-4.7401 5.6855-2.4941 5.6855 2.2457 0 6.4867-5.6855 2.4941-5.6855zm-6.362 0.71862c-2.2469 0.29163-1.45 4.1964-0.2536 4.2694 1.1959 0.0731 2.5013-4.561 0.2536-4.2694zm-3.7622 1.5218c-0.098 0.0105-0.2041 0.038-0.3169 0.0846-1.8059 0.74522-0.272 3.821 0.7397 3.6142 0.9493-0.19352 1.0552-3.8556-0.4228-3.6988zm-2.8109 2.4095c-0.157-6e-3 -0.3265 0.0442-0.5073 0.16907-1.4456 0.99887 0.5021 3.4178 1.3527 3.0436 0.7442-0.3276 0.2537-3.1756-0.8454-3.2126zm8.264 1.8599c-3.0991-0.0524-7.1864 1.4852-7.8836 4.6076-0.7551 3.3789 3.1127 8.0738 7.1439 8.0738 1.9831 0 4.2641-1.7896 4.6921-4.0581 0.3268-1.7298-3.8487-1.0389-3.6988 0.1057 0.1798 1.372-1.0152 2.0469-2.1769 1.1624-3.698-2.8155 6.1426-4.2062 5.4953-8.0527-0.2015-1.1973-1.7124-1.8074-3.572-1.8388z" style="fill-opacity:.75;fill:currentColor"/>
	<path id="d" class="ColorScheme-Background" d="m17.219 0.1875c-2.0714 0-3.3598 1.2878-4.125 2.7188-0.039-0.2541 0.053-0.49011-0.062-0.75-0.1689-0.37868-0.4728-0.75855-0.9062-1-0.4333-0.24145-0.9629-0.31159-1.4375-0.25-0.9097 0.11807-1.689 0.72133-2.0625 1.4062-0.1306 0.23961-0.09 0.47271-0.1563 0.71875-0.069-0.0633-0.1087-0.13104-0.1875-0.1875v-0.5625l-1.3125 0.125h-0.031c-0.2275 0.0244-0.4208 0.10312-0.625 0.1875-0.776 0.32018-1.3317 1.0229-1.5 1.7188-0.06 0.24663 0.03 0.45345 0.031 0.6875-0.1764-0.0657-0.321-0.18043-0.5312-0.1875-0.4452-0.017-0.8732 0.16754-1.2188 0.40625-0.6514 0.45012-1.0486 1.2299-1.0625 1.9062-0.014 0.67639 0.2383 1.2338 0.5313 1.7188 0.2929 0.48492 0.6361 0.9082 1.0937 1.2188 0.2115 0.14354 0.4869 0.26233 0.7813 0.34375-0.3856 0.56423-0.8104 1.1033-0.9688 1.8125-0.4985 2.2305 0.5053 4.5694 2.0625 6.375s3.7685 3.1562 6.25 3.1562c2.7051 0 5.3243-2.1125 5.875-5.0312 0.083-0.43808 0.045-0.9365-0.1875-1.3438-0.2329-0.40725-0.6034-0.68737-0.9375-0.84375-0.6683-0.31275-1.3025-0.31424-1.9375-0.25-0.2959 0.0299-0.5605 0.17378-0.8437 0.25 0.7037-0.43848 1.4242-0.84746 2.0625-1.4375 0.9177-0.84841 1.7151-2.0985 1.4687-3.5625-0.1196-0.71044-0.5495-1.2556-1.0625-1.6875 0.4053-0.20739 0.7948-0.454 1.1563-0.75 0.7686-0.62922 1.465-1.3995 1.9687-2.25s0.8862-1.7938 0.625-2.875c-0.1306-0.54061-0.5147-1.0682-1.0312-1.375-0.5166-0.3068-1.0773-0.40625-1.7188-0.40625zm-0.031 1.1875c3.9926 0-0.2543 5.6875-2.5 5.6875-2.246 0-1.4925-5.6875 2.5-5.6875zm-6.3438 0.71875c2.2477-0.29163 0.9459 4.3544-0.25 4.2812-1.1964-0.073-1.9969-3.9896 0.25-4.2812zm-3.7812 1.5312c1.478-0.15685 1.3868 3.494 0.4375 3.6875-1.0117 0.20676-2.5559-2.8798-0.75-3.625 0.1128-0.0466 0.2145-0.052 0.3125-0.0625zm-2.8125 2.4062c1.0991 0.037 1.5879 2.8912 0.8437 3.2188-0.8506 0.37422-2.7893-2.0636-1.3437-3.0625 0.1808-0.12487 0.343-0.16225 0.5-0.15625zm8.2187 0.28125c0.022 0.0804-0.027 0.17065 0 0.25 0.016 0.0471 0.074 0.0781 0.094 0.125-0.1409-2e-3 -0.2943 0.0282-0.4375 0.0312 0.1106-0.13523 0.2549-0.2604 0.3437-0.40625zm-3.25 0.5625c0.07 0.0794 0.1045 0.17942 0.1875 0.25-0.1173 0.0311-0.227 0.0902-0.3437 0.125 0.032-0.0842 0.099-0.17131 0.125-0.25 0.013-0.0407 0.019-0.084 0.031-0.125zm3.3125 1c1.8596 0.0315 3.361 0.64644 3.5625 1.8438 0.6473 3.8465-9.198 5.247-5.5 8.0625 1.1617 0.88445 2.3673 0.2157 2.1875-1.1562-0.1499-1.1446 4.0143-1.8548 3.6875-0.125-0.428 2.2684-2.7044 4.0625-4.6875 4.0625-4.0312 0-7.9113-4.6836-7.1562-8.0625 0.6972-3.1224 4.8071-4.6774 7.9062-4.625zm-0.6875 8.0312c-0.127 0.27433-0.2942 0.5374-0.25 0.875 0.013 0.10038 0 0.11926 0 0.15625-0.045-0.0185-0.1171-0.0239-0.25-0.125-0.282-0.21472-0.3021-0.26818-0.3125-0.28125 0.067-0.0942 0.5376-0.41258 0.8125-0.625z" style="fill-opacity:.5;fill:currentColor"/>
</svg>

<?xml version="1.0" encoding="UTF-8" standalone="no"?>
<!-- Created with Inkscape (http://www.inkscape.org/) -->

<svg
   xmlns:dc="http://purl.org/dc/elements/1.1/"
   xmlns:cc="http://creativecommons.org/ns#"
   xmlns:rdf="http://www.w3.org/1999/02/22-rdf-syntax-ns#"
   xmlns:svg="http://www.w3.org/2000/svg"
   xmlns="http://www.w3.org/2000/svg"
   xmlns:sodipodi="http://sodipodi.sourceforge.net/DTD/sodipodi-0.dtd"
   xmlns:inkscape="http://www.inkscape.org/namespaces/inkscape"
   width="22"
   height="22"
   id="svg27665"
   version="1.1"
   inkscape:version="0.48.3.1 r9886"
   sodipodi:docname="gnome.svg">
  <defs
     id="defs27667" />
  <sodipodi:namedview
     id="base"
     pagecolor="#ffffff"
     bordercolor="#666666"
     borderopacity="1.0"
     inkscape:pageopacity="0.0"
     inkscape:pageshadow="2"
     inkscape:zoom="31.999999"
     inkscape:cx="3.1096296"
     inkscape:cy="10.705297"
     inkscape:document-units="px"
     inkscape:current-layer="layer1"
     showgrid="true"
     inkscape:window-width="1920"
     inkscape:window-height="1033"
     inkscape:window-x="-10"
     inkscape:window-y="25"
     inkscape:window-maximized="1"
     inkscape:snap-bbox="true"
     inkscape:bbox-paths="true"
     inkscape:bbox-nodes="true"
     inkscape:snap-bbox-edge-midpoints="true"
     inkscape:snap-bbox-midpoints="true"
     inkscape:object-paths="true"
     inkscape:snap-intersection-paths="true"
     inkscape:object-nodes="true"
     inkscape:snap-smooth-nodes="true"
     inkscape:snap-midpoints="true"
     inkscape:snap-object-midpoints="true"
     inkscape:snap-center="true"
     inkscape:snap-global="false"
     showguides="false"
     inkscape:guide-bbox="true"
     fit-margin-top="0"
     fit-margin-left="0"
     fit-margin-right="0"
     fit-margin-bottom="0"
     inkscape:showpageshadow="false">
    <sodipodi:guide
       orientation="1,0"
       position="-3201.6232,-603.37575"
       id="guide4181" />
    <inkscape:grid
       type="xygrid"
       id="grid3296"
       empspacing="5"
       visible="true"
       enabled="true"
       snapvisiblegridlinesonly="true"
       originx="-1854.9999px"
       originy="-1853.0001px" />
    <sodipodi:guide
       orientation="1,0"
       position="-1342.9999,-1343"
       id="guide3432" />
    <sodipodi:guide
       orientation="1,0"
       position="-1854.9999,-1343"
       id="guide4416" />
    <sodipodi:guide
       orientation="0,1"
       position="-1854.9999,-1343"
       id="guide3391" />
    <sodipodi:guide
       orientation="0,1"
       position="-1564.9999,-1358"
       id="guide3393" />
    <sodipodi:guide
       orientation="0,1"
       position="-1529.9999,-1840.0001"
       id="guide3395" />
    <sodipodi:guide
       orientation="1,0"
       position="-1357.9999,-1600.0001"
       id="guide3397" />
    <sodipodi:guide
       orientation="1,0"
       position="-1839.9999,-1600.0001"
       id="guide3399" />
    <sodipodi:guide
       orientation="1,0"
       position="-1829.9999,-1600.0001"
       id="guide3401" />
    <sodipodi:guide
       orientation="1,0"
       position="-1367.9999,-1584.0001"
       id="guide3403" />
    <sodipodi:guide
       orientation="0,1"
       position="-1569.9999,-1368"
       id="guide3405" />
    <sodipodi:guide
       orientation="0,1"
       position="-1599.9999,-1830.0001"
       id="guide3407" />
    <sodipodi:guide
       orientation="1,0"
       position="-394.99996,-385.99995"
       id="guide3628" />
    <sodipodi:guide
       orientation="1,0"
       position="-346.99996,-382.99995"
       id="guide3630" />
    <sodipodi:guide
       orientation="0,1"
       position="-378.99996,-346.99995"
       id="guide3632" />
    <sodipodi:guide
       orientation="0,1"
       position="-376.99996,-394.99995"
       id="guide3634" />
    <sodipodi:guide
       orientation="0,1"
       position="-395.99996,-349.99995"
       id="guide3636" />
    <sodipodi:guide
       orientation="1,0"
       position="-349.99996,-344.99995"
       id="guide3638" />
    <sodipodi:guide
       orientation="0,1"
       position="-399.99996,-391.99995"
       id="guide3640" />
    <sodipodi:guide
       orientation="1,0"
       position="-391.99996,-344.99995"
       id="guide3642" />
  </sodipodi:namedview>
  <metadata
     id="metadata27670">
    <rdf:RDF>
      <cc:Work
         rdf:about="">
        <dc:format>image/svg+xml</dc:format>
        <dc:type
           rdf:resource="http://purl.org/dc/dcmitype/StillImage" />
        <dc:title />
      </cc:Work>
    </rdf:RDF>
  </metadata>
  <g
     inkscape:label="Camada 1"
     inkscape:groupmode="layer"
     id="layer1"
     transform="translate(1683.7081,-520.68635)">
    <g
       id="scalable"
       transform="matrix(0.77893781,0,0,0.77893781,-777.42115,1929.5381)"
       inkscape:label="#g3701" />
    <path
       inkscape:connector-curvature="0"
       id="path3005"
       d="m -1666.5138,522.06134 c -3.9925,0 -4.7401,5.68551 -2.4941,5.68551 2.2457,0 6.4867,-5.68551 2.4941,-5.68551 z m -6.362,0.71862 c -2.2469,0.29163 -1.45,4.19639 -0.2536,4.2694 1.1959,0.0731 2.5013,-4.56103 0.2536,-4.2694 z m -3.7622,1.52177 c -0.098,0.0105 -0.2041,0.038 -0.3169,0.0846 -1.8059,0.74522 -0.272,3.82097 0.7397,3.61421 0.9493,-0.19352 1.0552,-3.85561 -0.4228,-3.69876 z m -2.8109,2.40948 c -0.157,-0.006 -0.3265,0.0442 -0.5073,0.16907 -1.4456,0.99887 0.5021,3.41777 1.3527,3.04355 0.7442,-0.3276 0.2537,-3.17564 -0.8454,-3.21262 z m 8.264,1.85993 c -3.0991,-0.0524 -7.1864,1.48521 -7.8836,4.60758 -0.7551,3.37894 3.1127,8.07384 7.1439,8.07384 1.9831,0 4.2641,-1.78963 4.6921,-4.05807 0.3268,-1.72979 -3.8487,-1.0389 -3.6988,0.1057 0.1798,1.37195 -1.0152,2.0469 -2.1769,1.16245 -3.698,-2.81548 6.1426,-4.20622 5.4953,-8.05269 -0.2015,-1.19731 -1.7124,-1.80736 -3.572,-1.83881 z"
       style="fill:#27303a;fill-opacity:0.753280819999999968;fill-rule:nonzero;stroke:none" />
    <path
       style="font-size:medium;font-style:normal;font-variant:normal;font-weight:normal;font-stretch:normal;text-indent:0;text-align:start;text-decoration:none;line-height:normal;letter-spacing:normal;word-spacing:normal;text-transform:none;direction:ltr;block-progression:tb;writing-mode:lr-tb;text-anchor:start;baseline-shift:baseline;color:#000000;fill:#f1f3f5;fill-opacity:0.90288714000000003;fill-rule:nonzero;stroke:none;stroke-width:2;marker:none;visibility:visible;display:inline;overflow:visible;enable-background:accumulate;font-family:Sans;-inkscape-font-specification:Sans"
       d="M 17.21875 0.1875 C 15.14735 0.1875 13.85895 1.47526 13.09375 2.90625 C 13.05475 2.65215 13.14625 2.41614 13.03125 2.15625 C 12.86235 1.77757 12.5584 1.3977 12.125 1.15625 C 11.6917 0.9148 11.1621 0.84466 10.6875 0.90625 C 9.7778 1.02432 8.9985 1.62758 8.625 2.3125 C 8.4944 2.55211 8.53495 2.78521 8.46875 3.03125 C 8.39975 2.96795 8.36005 2.90021 8.28125 2.84375 L 8.28125 2.28125 L 6.96875 2.40625 L 6.9375 2.40625 C 6.71 2.43065 6.5167 2.50937 6.3125 2.59375 C 5.5365 2.91393 4.9808 3.61661 4.8125 4.3125 C 4.7525 4.55913 4.84275 4.76595 4.84375 5 C 4.66735 4.9343 4.5227 4.81957 4.3125 4.8125 C 3.8673 4.7955 3.43935 4.98004 3.09375 5.21875 C 2.44235 5.66887 2.04515 6.44861 2.03125 7.125 C 2.01725 7.80139 2.2695 8.35883 2.5625 8.84375 C 2.8554 9.32867 3.19865 9.75195 3.65625 10.0625 C 3.86775 10.20604 4.1431 10.32483 4.4375 10.40625 C 4.0519 10.97048 3.62715 11.50956 3.46875 12.21875 C 2.97025 14.44926 3.97405 16.78813 5.53125 18.59375 C 7.08845 20.39937 9.29975 21.75 11.78125 21.75 C 14.48635 21.75 17.10555 19.63751 17.65625 16.71875 C 17.73925 16.28067 17.70125 15.78225 17.46875 15.375 C 17.23585 14.96775 16.86535 14.68763 16.53125 14.53125 C 15.86295 14.2185 15.22875 14.21701 14.59375 14.28125 C 14.29785 14.31115 14.0332 14.45503 13.75 14.53125 C 14.4537 14.09277 15.1742 13.68379 15.8125 13.09375 C 16.7302 12.24534 17.52765 10.99522 17.28125 9.53125 C 17.16165 8.82081 16.73175 8.2757 16.21875 7.84375 C 16.62405 7.63636 17.0135 7.38975 17.375 7.09375 C 18.1436 6.46453 18.84005 5.69421 19.34375 4.84375 C 19.84745 3.99329 20.22995 3.04998 19.96875 1.96875 C 19.83815 1.42814 19.454 0.90055 18.9375 0.59375 C 18.4209 0.28695 17.86025 0.1875 17.21875 0.1875 z M 17.1875 1.375 C 21.1801 1.375 16.9332 7.0625 14.6875 7.0625 C 12.4415 7.0625 13.195 1.375 17.1875 1.375 z M 10.84375 2.09375 C 13.09145 1.80212 11.78965 6.4481 10.59375 6.375 C 9.39735 6.30199 8.59685 2.38538 10.84375 2.09375 z M 7.0625 3.625 C 8.5405 3.46815 8.4493 7.11898 7.5 7.3125 C 6.4883 7.51926 4.9441 4.43272 6.75 3.6875 C 6.8628 3.6409 6.9645 3.6355 7.0625 3.625 z M 4.25 6.03125 C 5.3491 6.06823 5.83795 8.9224 5.09375 9.25 C 4.24315 9.62422 2.3044 7.18637 3.75 6.1875 C 3.9308 6.06263 4.093 6.02525 4.25 6.03125 z M 12.46875 6.3125 C 12.49075 6.3929 12.44175 6.48315 12.46875 6.5625 C 12.48475 6.6096 12.5425 6.6406 12.5625 6.6875 C 12.4216 6.6855 12.2682 6.71565 12.125 6.71875 C 12.2356 6.58352 12.37995 6.45835 12.46875 6.3125 z M 9.21875 6.875 C 9.28875 6.9544 9.32325 7.05442 9.40625 7.125 C 9.28895 7.1561 9.1792 7.2152 9.0625 7.25 C 9.0945 7.1658 9.1615 7.07869 9.1875 7 C 9.2005 6.9593 9.20675 6.916 9.21875 6.875 z M 12.53125 7.875 C 14.39085 7.90645 15.89225 8.52144 16.09375 9.71875 C 16.74105 13.56522 6.89575 14.96577 10.59375 17.78125 C 11.75545 18.6657 12.96105 17.99695 12.78125 16.625 C 12.63135 15.4804 16.79555 14.77021 16.46875 16.5 C 16.04075 18.76844 13.76435 20.5625 11.78125 20.5625 C 7.75005 20.5625 3.8699 15.87894 4.625 12.5 C 5.3222 9.37763 9.43215 7.8226 12.53125 7.875 z M 11.84375 15.90625 C 11.71675 16.18058 11.54955 16.44365 11.59375 16.78125 C 11.606875 16.881628 11.595042 16.900512 11.59375 16.9375 C 11.54888 16.918985 11.476629 16.913613 11.34375 16.8125 C 11.06175 16.59778 11.04165 16.54432 11.03125 16.53125 C 11.09825 16.43705 11.56885 16.11867 11.84375 15.90625 z "
       transform="translate(-1683.7081,520.68635)"
       id="path1369" />
  </g>
</svg>
